!!!SOCIAL_FUNCTION: stomp dance songs
!!!PDT:	1943
!!!LING_GROUP: Muskogean
!!!LANG: Non-Tone
Specific Region: Oklahoma, California, Mississippi, Louisiana, Texas, Alabama
!!!REG: Southeast
!!!COM: Anon.
!!!OTL: Bear Dance Song (d)
!!!ODT: <1933//
!!!MPN: Gus Willis
!!!MLC: Philadelphia, Mississippi, United States of America
!! Song was recorded in January 1933.
!!!AGN: monody
!!!AMT: irregular
!!!RWG: Transcribed pitches, durations, and meters are only approximate.
**kern	**recip
*ICvox	*ICidio
*Imale	*Isticks
*clefF4	*
*k[f#]	*
*M2/4	*M2/4
*MM88	*MM88
=1-	=1-
8.G	12
.	12r
.	12
16G	.
16G	12
8.G	.
.	12r
.	12
=2	=2
8.A	12
.	12r
.	12
16G	.
16G	12
8.G	.
.	12r
.	12
=3	=3
8.G	12
.	12r
.	12
16G	.
8G	12
.	12r
8r	.
.	12
=4	=4
8.G	12
.	12r
.	12
16G	.
16G	12
8.G	.
.	12r
.	12
=5	=5
8.A	12
.	12r
.	12
16G	.
16G	12
8.G	.
.	12r
.	12
=6	=6
8.G	12
.	12r
.	12
16G	.
8G	12
.	12r
8r	.
.	12
=7	=7
8.G	12
.	12r
.	12
16G	.
16G	12
8.G	.
.	12r
.	12
=8	=8
8.A	12
.	12r
.	12
16G	.
16G	12
8.G	.
.	12r
.	12
=9	=9
8.G	12
.	12r
.	12
16G	.
8G	12
.	12r
8r	.
.	12
=10	=10
8G	12
.	12r
8d	.
.	12
8d	12
.	12r
8B	.
.	12
*M3/4	*M3/4
=11	=11
8A	12
.	12r
8B	.
.	12
8G	12
.	12r
8E	.
.	12
8E	12
.	12r
8r	.
.	12
*M2/4	*M2/4
=12	=12
8E	12
.	12r
8d	.
.	12
8d	12
.	12r
8B	.
.	12
*M3/4	*M3/4
=13	=13
8A	12
.	12r
8B	.
.	12
8G	12
.	12r
8G	.
.	12
8G	12
.	12r
8r	.
.	12
=14	=14
16G	12
8.G	.
.	12r
.	12
8A	12
.	12r
8G	.
.	12
8G	12
.	12r
8r	.
.	12
*M2/4	*M2/4
=15	=15
16A	12
8.G	.
.	12r
.	12
16G	12
8.G	.
.	12r
.	12
=16	=16
8A	12
.	12r
8G	.
.	12
8G	12
.	12r
8G	.
.	12
==	==
*-	*-
!!!CNT: Choctaw
!!!TXO: Choctaw
!!!OCY: United States
!!!OCL: Frances Densmore
!!!YOR: Frances Densmore, "Choctaw Music"
!!!YOR: Bulletin 136, page 160, No. 43
!!!PPR: Smithsonian Institution, Bureau of American Ethnology
!!!PPR: Government Printing Office
!!!PDT: 1943
!!!PPP: Washington, DC, United States of America
!!!YEC: Electronic Copyright 2000 David Huron
!!!YER: August 2000
!!!YEN: United States of America
!!!ENC: David Huron
!!!RDT: August 28, 2000
!!!EEV: Release 1.0
!!!AIN: sticks, vox
